public/fonts/icons/calendar-days.svg

<?xml version="1.0" encoding="utf-8"?>

<!DOCTYPE svg PUBLIC "-//W3C//DTD SVG 1.1//EN" "http://www.w3.org/Graphics/SVG/1.1/DTD/svg11.dtd">
<svg version="1.1" xmlns="http://www.w3.org/2000/svg" xmlns:xlink="http://www.w3.org/1999/xlink" width="32" height="32" viewBox="0 0 32 32">
<g>
</g>
	<path d="M9 5c0.553 0 1-0.448 1-1v-3c0-0.552-0.447-1-1-1-0.552 0-1 0.448-1 1v3c0 0.552 0.448 1 1 1zM29 2h-3v2c0 1.657-1.344 3-3 3s-3-1.343-3-3c0 0 0 0 0-0.001v-1.999h-8v2c0 1.657-1.344 3-3 3s-3-1.343-3-3v-2h-3c-1.951 0-3 1.13-3 3v24c0 1.789 1.17 3 3 3h26c1.992 0 3-1.17 3-3v-24c0-1.83-1.13-3-3-3zM28 28h-24v-18h24v18zM14.682 19.269c-0.422 0.995-0.486 3.262-0.682 4.731h2.688c0.082-1.056 0.328-3.256 0.564-4.029 0.299-0.994 0.483-1.29 0.999-2.101 0.426-0.667 1.114-1.298 1.749-1.87v-2h-8v2h4.625c-0.912 1.134-1.521 2.274-1.943 3.269zM23 5c0.553 0 1-0.448 1-1v-3c0-0.552-0.447-1-1-1s-1 0.448-1 1v3c0 0.552 0.447 1 1 1z" fill="#000000"></path>
</svg>

<svg xmlns="http://www.w3.org/2000/svg" width="32" height="32" viewBox="0 0 32 32"><title>Calendar Days</title><path d="M9 5a1 1 0 0 0 1-1V1a1 1 0 0 0-2 0v3a1 1 0 0 0 1 1zm20-3h-3v2a3 3 0 0 1-6 0V2h-8v2a3 3 0 0 1-6 0V2H3C1.05 2 0 3.13 0 5v24c0 1.79 1.17 3 3 3h26c1.992 0 3-1.17 3-3V5c0-1.83-1.13-3-3-3zm-1 26H4V10h24v18zm-13.318-8.73c-.422.994-.486 3.26-.682 4.73h2.688c.082-1.056.328-3.256.564-4.03.3-.993.483-1.29 1-2.1.425-.667 1.113-1.298 1.748-1.87v-2h-8v2h4.625a13.758 13.758 0 0 0-1.943 3.27zM23 5a1 1 0 0 0 1-1V1a1 1 0 0 0-2 0v3a1 1 0 0 0 1 1z"/></svg>
